src/assets/fleet-icons/reports.svg

<svg width="24" height="24" viewBox="0 0 24 24" fill="none" xmlns="http://www.w3.org/2000/svg">
    <path
        d="M12.75 4.75H7.75C6.64543 4.75 5.75 5.64543 5.75 6.75V17.25C5.75 18.3546 6.64543 19.25 7.75 19.25H16.25C17.3546 19.25 18.25 18.3546 18.25 17.25V10.25M12.75 4.75V8.25C12.75 9.35457 13.6454 10.25 14.75 10.25H18.25M12.75 4.75L18.25 10.25"
        stroke="currentColor" stroke-linecap="round" stroke-linejoin="round" />
</svg>

<svg width="24" height="24" fill="none" xmlns="http://www.w3.org/2000/svg">
    <path
        d="M12.75 4.75h-5a2 2 0 0 0-2 2v10.5a2 2 0 0 0 2 2h8.5a2 2 0 0 0 2-2v-7m-5.5-5.5v3.5a2 2 0 0 0 2 2h3.5m-5.5-5.5 5.5 5.5"
        stroke="currentColor" stroke-linecap="round" stroke-linejoin="round" />
</svg>
